Projects/Foundations/Icons-SVG-Sources/assets/chainlink.svg

<svg width="512" height="512" viewBox="0 0 512 512" fill="none" xmlns="http://www.w3.org/2000/svg">
<path d="M256 0V512C114.615 512 0 397.385 0 256C0 114.615 114.615 0 256 0Z" fill="#E6EAEA"/>
<path d="M256 512V0C397.385 0 512 114.615 512 256C512 397.385 397.385 512 256 512Z" fill="white"/>
<path d="M256 156.52L342.23 206V305.45L256.23 355.24L170.09 305.88V206.49L255.99 156.49L256 156.52ZM255.99 83.4902L224.42 101.8L138.34 151.8L106.73 170V342.47L138.34 360.71L224.54 410.2L256.15 428.43L287.76 410.2L373.66 360.35L405.27 342.11V169.4L373.66 151.17L287.52 101.8L255.91 83.5702L255.99 83.4902Z" fill="#4ACFD9"/>
<path d="M224.42 101.8L138.34 151.77L106.73 170.01V342.48L138.34 360.71L224.54 410.2L256 428.35V355.08L170.13 305.88V206.49L256 156.53V83.6196L255.97 83.5996L224.42 101.8Z" fill="#0295AA"/>
<path d="M255.97 83.6003L256 83.5803V83.5703H255.91L255.97 83.6003Z" fill="#0295AA"/>
</svg>

<svg xmlns="http://www.w3.org/2000/svg" viewBox="0 0 512 512"><defs><style>.cls-1{fill:#e6eaea;}.cls-2{fill:#0295aa;}.cls-3{fill:#4acfd9;}</style></defs><title>chainlink</title><g id="circle"><g id="Circle_Back" data-name="Circle Back"><path class="cls-1" d="M0,256C0,397.4,114.6,512,256,512V0C114.6,0,0,114.6,0,256Z"/><path class="cls-1" d="M256,0V512c141.4,0,256-114.6,256-256S397.4,0,256,0Z"/></g></g><g id="link"><g id="Layer_1-2" data-name="Layer 1-2"><path class="cls-2" d="M256,156.52,342.23,206v99.45l-86,49.79-86.14-49.36V206.49l85.9-50m0-73L224.42,101.8l-86.08,50L106.73,170V342.47l31.61,18.24,86.2,49.49,31.61,18.23,31.61-18.23,85.9-49.85,31.61-18.24V169.4l-31.61-18.23L287.52,101.8,255.91,83.57Z"/></g><polygon class="cls-3" points="224.42 101.8 138.34 151.77 106.73 170.01 106.73 342.48 138.34 360.71 224.54 410.2 256 428.35 256 355.08 170.13 305.88 170.13 206.49 256 156.53 256 83.62 255.97 83.6 224.42 101.8"/><polygon class="cls-3" points="255.97 83.6 256 83.58 256 83.57 255.91 83.57 255.97 83.6"/></g></svg>
